X:5
T:Montrose Races, A Strathspey
S:Petrie's Second Collection of Strathspey Reels and Country Dances &c.
Z:Steve Wyrick <sjwyrick'at'gmail'dot'com>, 6/5/04
N:Petrie's Second Collection, page 2
L:1/8
M:C
R:Strathspey
K:Gm
 d|B>GD<G B>G e/d/c/B/|A<FC<F A>F d/c/B/A/|B<GD<G B>G e/d/c/B/|A>f d/c/B/A/ B<GG  :|
^f|g>dB<g d<gB<g      |A<fc<f A>F A/B/c/A/|g>dB<g d<gB<g      |A>F A/B/c/A/ B<GG>^f|
   g>dB<g d<gB<g      |A<fc<f A>F A/B/c/A/|B<Gc<A d<Be<c      |d>D d/c/B/A/ B<GG  |]
